static/assets/img/icons/theme/design/triangle.svg

<svg height="24" viewBox="0 0 24 24" width="24" xmlns="http://www.w3.org/2000/svg"><g fill="none" fill-rule="evenodd"><path d="m0 0h24v24h-24z" opacity="0"/><path d="m3.95428417 19h16.09143163c.2761424 0 .5-.2238576.5-.5 0-.1017022-.0310139-.2009862-.0889039-.284605l-8.0457158-11.62158953c-.157183-.2270421-.468659-.2836741-.6957011-.1264911-.0494247.03421708-.092274.07706642-.1264911.1264911l-8.04571583 11.62158953c-.157183.2270421-.100551.5385181.12649111.6957011.08361878.0578899.18290276.0889039.28460499.0889039z" fill="#000"/></g></svg>

<svg width="24px" height="24px" viewBox="0 0 24 24" version="1.1" xmlns="http://www.w3.org/2000/svg" xmlns:xlink="http://www.w3.org/1999/xlink">
    <title>Icon For Triangle</title>
    <g stroke="none" stroke-width="1" fill="none" fill-rule="evenodd">
        <rect opacity="0" x="0" y="0" width="24" height="24"></rect>
        <path d="M3.95428417,19 L20.0457158,19 C20.3218582,19 20.5457158,18.7761424 20.5457158,18.5 C20.5457158,18.3982978 20.5147019,18.2990138 20.4568119,18.215395 L12.4110961,6.59380547 C12.2539131,6.36676337 11.9424371,6.31013137 11.715395,6.46731437 C11.6659703,6.50153145 11.623121,6.54438079 11.5889039,6.59380547 L3.54318807,18.215395 C3.38600507,18.4424371 3.44263707,18.7539131 3.66967918,18.9110961 C3.75329796,18.968986 3.85258194,19 3.95428417,19 Z" fill="#000000"></path>
    </g>
</svg>
